src/topics/icons/bash.svg

<svg height="190" preserveAspectRatio="xMidYMid" viewBox="0 0 256 190" width="256" xmlns="http://www.w3.org/2000/svg"><path d="m0 0h256v189.071895h-256z"/><g fill="#fff"><path d="m49.6383442 110.152505v-30.6753808h-30.3965141v-31.7908497h30.3965141v-30.9542484h31.7908497v30.9542484h30.1176471v-30.9542484h31.79085v30.9542484h30.954248v31.7908497h-30.954248v30.6753808h30.954248v31.79085h-30.954248v29.83878h-31.79085v-29.83878h-30.1176471v29.83878h-31.7908497v-29.83878h-30.3965141v-31.79085zm31.7908497 0v-30.6753808h30.1176471v30.6753808z"/><path d="m204.96732 16.732026h31.79085v93.420479h-31.79085z"/><path d="m204.96732 141.943355h31.79085v29.83878h-31.79085z"/></g></svg>

<?xml version="1.0" encoding="UTF-8" standalone="no" ?>
<svg width="256px" height="190px" viewBox="0 0 256 190" version="1.1" xmlns="http://www.w3.org/2000/svg" xmlns:xlink="http://www.w3.org/1999/xlink" preserveAspectRatio="xMidYMid">
    <g>
        <rect fill="#000000" x="0" y="0" width="256" height="189.071895"></rect>
        <path d="M49.6383442,110.152505 L49.6383442,79.4771242 L19.2418301,79.4771242 L19.2418301,47.6862745 L49.6383442,47.6862745 L49.6383442,16.7320261 L81.4291939,16.7320261 L81.4291939,47.6862745 L111.546841,47.6862745 L111.546841,16.7320261 L143.337691,16.7320261 L143.337691,47.6862745 L174.291939,47.6862745 L174.291939,79.4771242 L143.337691,79.4771242 L143.337691,110.152505 L174.291939,110.152505 L174.291939,141.943355 L143.337691,141.943355 L143.337691,171.782135 L111.546841,171.782135 L111.546841,141.943355 L81.4291939,141.943355 L81.4291939,171.782135 L49.6383442,171.782135 L49.6383442,141.943355 L19.2418301,141.943355 L19.2418301,110.152505 L49.6383442,110.152505 L49.6383442,110.152505 Z M81.4291939,110.152505 L81.4291939,79.4771242 L111.546841,79.4771242 L111.546841,110.152505 L81.4291939,110.152505 L81.4291939,110.152505 Z" fill="#FFFFFF"></path>
        <rect fill="#FFFFFF" x="204.96732" y="16.7320261" width="31.7908497" height="93.4204793"></rect>
        <rect fill="#FFFFFF" x="204.96732" y="141.943355" width="31.7908497" height="29.83878"></rect>
    </g>
</svg>
